src/assets/handwriting-circle.svg

<?xml version="1.0" encoding="UTF-8" standalone="no"?>
<!-- Created with Inkscape (http://www.inkscape.org/) -->

<svg
   width="212.22049"
   height="79.982101"
   viewBox="0 0 56.150004 21.161932"
   version="1.1"
   id="svg5"
   xmlns="http://www.w3.org/2000/svg"
   xmlns:svg="http://www.w3.org/2000/svg">
  <defs
     id="defs2" />
  <g
     id="layer1"
     transform="translate(-2.5303851,-2.923049)">
    <path
      class="path-1"
       id="path1031"
       style="fill:none;stroke:#000000;stroke-width:0.478049"
       transform="matrix(0.9996871,0.02501421,-0.02754956,0.99962044,0,0)"
       d="M 58.816368,12.994369 A 27.773596,9.935173 0 0 1 31.042772,22.929542 27.773596,9.935173 0 0 1 3.2691765,12.994369 27.773596,9.935173 0 0 1 31.042772,3.0591955 27.773596,9.935173 0 0 1 58.816368,12.994369 Z" />
    <path
      class="path-2"
       id="path1031-9"
       style="fill:none;stroke:#000000;stroke-width:0.482894"
       transform="matrix(0.99820056,0.05996367,-0.06130692,0.99811896,0,0)"
       d="M 58.576649,11.664768 A 27.538046,10.224285 0 0 1 31.038603,21.889053 27.538046,10.224285 0 0 1 3.5005569,11.664768 27.538046,10.224285 0 0 1 31.038603,1.4404831 27.538046,10.224285 0 0 1 58.576649,11.664768 Z" />
  </g>
</svg>

<svg width="212.22" height="79.982" version="1.1" viewBox="0 0 56.15 21.162" xmlns="http://www.w3.org/2000/svg">
 <g transform="translate(-2.5304 -2.923)" fill="none" stroke="#000">
  <path class="path-1" transform="matrix(.99969 .025014 -.02755 .99962 0 0)" d="m58.816 12.994a27.774 9.9352 0 0 1-27.774 9.9352 27.774 9.9352 0 0 1-27.774-9.9352 27.774 9.9352 0 0 1 27.774-9.9352 27.774 9.9352 0 0 1 27.774 9.9352z" stroke-width=".47805"/>
  <path class="path-2" transform="matrix(.9982 .059964 -.061307 .99812 0 0)" d="m58.577 11.665a27.538 10.224 0 0 1-27.538 10.224 27.538 10.224 0 0 1-27.538-10.224 27.538 10.224 0 0 1 27.538-10.224 27.538 10.224 0 0 1 27.538 10.224z" stroke-width=".48289"/>
 </g>
</svg>
